packages/foundations/assets/icons/functional/images/transportation/boat_28.svg

<svg width="28" height="28" viewBox="0 0 28 28" fill="none" xmlns="http://www.w3.org/2000/svg">
<g clip-path="url(#clip0_187_853)">
<path fill-rule="evenodd" clip-rule="evenodd" d="M6.07315 18.2007C6.43582 18.5499 7.47367 19.7156 8.31152 19.7075C9.14937 19.6994 10.1259 18.7116 10.476 18.2807C10.8261 17.8498 11.4839 17.8498 11.8341 18.2806C12.1843 18.7115 13.1698 19.7156 14.0007 19.7075C14.8316 19.6994 15.8369 18.6825 16.1636 18.2806C16.4903 17.8787 17.0847 17.8517 17.4473 18.1999C17.8099 18.548 18.8338 19.7092 19.688 19.7075C20.5423 19.7058 21.5243 18.6827 21.8511 18.2806C22.1779 17.8785 22.7726 17.8517 23.1351 18.2002C23.4977 18.5487 24.5069 19.7134 25.3738 19.7075C25.8571 19.7075 26.2488 20.0993 26.2488 20.5825C26.2488 21.0312 25.9004 21.4586 25.3687 21.4575C24.4658 21.4524 23.5196 20.998 22.5301 20.0943C21.5321 21.0099 20.5847 21.4643 19.688 21.4574C18.7914 21.4506 17.8429 20.9959 16.8426 20.0934C15.8895 20.9993 14.9427 21.4516 14.0024 21.4503C13.062 21.4489 12.1129 20.9969 11.1551 20.0943C10.1527 21.0031 9.20495 21.4575 8.31189 21.4575C7.41884 21.4575 6.47074 21.0034 5.46759 20.0951C4.4816 21.0034 3.53368 21.4575 2.62384 21.4575C2.14059 21.4575 1.74884 21.0658 1.74884 20.5825C1.74884 20.1338 2.10301 19.7075 2.62384 19.7075C3.14467 19.7075 4.46123 18.6841 4.78807 18.2813C5.1149 17.8784 5.71048 17.8515 6.07315 18.2007ZM17.9515 8.33118C18.312 8.72729 18.6055 9.12146 18.8296 9.46832L25.2226 8.34567C25.9361 8.22047 26.4691 8.96001 26.1629 9.5866L21.7408 16.6713C21.4847 17.081 20.9449 17.2056 20.5351 16.9495C20.1546 16.7117 20.02 16.2292 20.2078 15.8334L21.4145 13.8969L8.02179 16.1949C7.5455 16.2766 7.09315 15.9567 7.01144 15.4805C6.93556 15.0382 7.20595 14.6166 7.62631 14.4932L22.6543 11.9089L23.5923 10.4071L4.14085 13.8213C3.76731 13.8744 3.53634 14.0907 3.50302 14.555L3.49884 17.0825C3.49884 17.5658 3.10709 17.9575 2.62384 17.9575C2.17511 17.9575 1.80527 17.6197 1.75473 17.1845L1.75354 14.4968C1.82213 13.2005 2.63444 12.3349 3.71724 12.1186L7.35765 11.4803C7.94801 10.6223 8.14836 9.54887 7.89889 8.52874C7.78587 8.06662 8.06239 7.60599 8.5087 7.47938L13.857 6.59407C15.4131 6.33853 16.7862 7.05059 17.9515 8.33118ZM14.3015 8.30131L9.74306 9.0565C9.78742 9.75382 9.69621 10.4504 9.47791 11.1081L16.9096 9.80355C16.8286 9.70333 16.7444 9.60485 16.6572 9.509C15.9006 8.67757 15.1042 8.23715 14.3015 8.30131Z" fill="#1A1C1F"/>
</g>
<defs>
<clipPath id="clip0_187_853">
<rect width="28" height="28" fill="white"/>
</clipPath>
</defs>
</svg>

<svg xmlns="http://www.w3.org/2000/svg" width="28" height="28" fill="none"><g clip-path="url(#a)"><path fill="#1A1C1F" fill-rule="evenodd" d="M6.073 18.2c.363.35 1.4 1.516 2.239 1.508.837-.009 1.814-.996 2.164-1.427a.875.875 0 0 1 1.358 0c.35.43 1.336 1.435 2.167 1.427s1.836-1.025 2.163-1.427a.875.875 0 0 1 1.283-.081c.363.348 1.387 1.51 2.241 1.508s1.836-1.025 2.163-1.427a.875.875 0 0 1 1.284-.08c.363.348 1.372 1.512 2.239 1.506.483 0 .875.392.875.875a.87.87 0 0 1-.88.875q-1.355-.007-2.839-1.363-1.497 1.374-2.842 1.363-1.345-.01-2.845-1.364-1.43 1.36-2.84 1.357-1.411-.002-2.848-1.356-1.503 1.364-2.843 1.363-1.34 0-2.844-1.362-1.479 1.362-2.844 1.363a.875.875 0 1 1 0-1.75c.52 0 1.837-1.024 2.164-1.427a.875.875 0 0 1 1.285-.08m11.878-9.869c.361.396.654.79.879 1.137l6.393-1.122a.875.875 0 0 1 .94 1.24l-4.422 7.085a.875.875 0 0 1-1.533-.838l1.207-1.936-13.393 2.298a.875.875 0 0 1-.396-1.702l15.028-2.584.938-1.502-19.451 3.414c-.374.053-.605.27-.638.734l-.004 2.528a.875.875 0 0 1-1.744.102l-.001-2.688c.068-1.296.88-2.162 1.963-2.378l3.64-.639A3.67 3.67 0 0 0 7.9 8.53a.875.875 0 0 1 .61-1.05l5.348-.885c1.556-.255 2.93.457 4.095 1.737m-3.65-.03-4.558.755a5.4 5.4 0 0 1-.265 2.052l7.432-1.304a7 7 0 0 0-.253-.295c-.756-.831-1.553-1.272-2.355-1.208" clip-rule="evenodd"/></g><defs><clipPath id="a"><path fill="#fff" d="M0 0h28v28H0z"/></clipPath></defs></svg>
